16x16/apps/bluegriffon.svg

<svg xmlns="http://www.w3.org/2000/svg" width="16" height="16" version="1.1">
 <path style="fill:#4f4f4f" d="M 7.5828,4.0003 C 7.4936,4.0013 7.3981,4.0095 7.3431,4.0189 6.9974,4.0784 6.7217,4.2073 6.578,4.383 6.4655,4.5206 6.4339,4.6928 6.4904,4.8591 L 6.4996,4.9058 C 6.4996,4.9058 4.9973,5.078 4.9971,5.0784 4.9962,5.0793 5.057,5.3351 5.057,5.3351 5.1227,5.5678 5.1362,6.1149 5.126,6.1149 5.1238,6.1149 5.0895,6.0905 5.0524,6.0636 4.8985,5.9519 4.7594,5.9977 4.6098,5.9906 4.4447,5.9827 4.3402,6.0282 4.2226,6.1446 4.2201,6.1471 4.216,6.1467 4.2134,6.1493 4.1545,6.209 4.1323,6.2369 4.0935,6.3173 4.0373,6.4345 4.0091,6.4388 4.0013,6.5769 3.9924,6.7383 4.0275,6.9425 4.0843,7.0764 L 4.1028,7.1231 H 4.1811 C 4.3852,7.1231 4.5456,6.8587 4.7158,6.7777 4.8345,6.748 5.0526,6.7481 5.1998,6.7777 5.7303,6.8843 6.1279,6.7492 6.1079,7.1134 6.1025,7.2105 6.0685,7.2743 5.9834,7.3608 5.9125,7.4329 5.8199,7.4969 5.6607,7.5848 5.6048,7.6158 5.5118,7.6691 5.4533,7.7015 5.3949,7.734 5.3115,7.785 5.2689,7.8135 5.1847,7.87 5.08,7.9637 5.08,7.9863 5.08,8.0056 5.1322,8.0048 5.3565,7.9816 5.4527,7.9716 5.5317,7.9562 5.6146,7.9442 6.0168,7.8861 6.2852,7.8072 6.495,7.6688 6.6944,7.5373 6.8443,7.3285 6.9007,7.1088 6.9098,7.0731 6.9237,7.0481 6.9237,7.0481 6.9237,7.0481 6.9656,7.0671 7.0021,7.0901 7.2388,7.2393 7.4335,7.2931 7.5966,7.2582 7.7424,7.2269 7.8828,7.138 8.1406,6.9127 L 8.2743,6.8007 8.394,7.0621 C 8.4542,7.2044 8.519,8.038 8.519,8.038 8.6927,8.064 8.7772,8.0322 8.998,7.9999 9.0929,7.3651 9.0325,6.5153 8.9798,6.0255 8.8924,5.9685 8.1544,5.9709 8.1544,5.9709 7.9627,6.1249 7.8065,6.2255 7.698,6.152 7.5906,6.079 7.4998,5.9699 7.4998,5.9699 7.5049,5.9651 7.5828,5.9372 7.5828,5.9372 7.9067,5.8234 8.1286,5.6076 8.2743,5.2605 8.3342,5.1176 8.4632,4.5744 8.4632,4.5744 L 8.5922,4.0375 7.2234,4.705 7.486,4.4623 7.781,4.2009 7.7902,4.1776 C 7.7902,4.1776 7.7995,4.1451 7.7995,4.1029 7.7995,4.0251 7.7967,4.0201 7.7718,4.0096 7.7517,4.001 7.672,3.9991 7.5828,4.0003 Z M 2.052,8.0022 C 1.9458,8.009 1.809,8.0427 1.723,8.0849 1.4774,8.2055 1.3331,8.4243 1.265,8.7698 1.2252,8.972 1.2184,9.0828 1.2161,9.6202 L 1.2072,10.135 0.80262,9.4364 C 0.7483,9.3513 0.64824,9.2443 0.58031,9.1973 0.58031,9.1973 0.50099,9.1238 0.37579,9.1238 0.20596,9.1238 0.05626,9.2846 0.0112,9.5145 -0.0321,9.7354 0.05214,9.9187 0.22906,9.988 0.28926,10.023 0.51806,10.016 0.51806,10.016 L 0.54919,10.098 C 0.58855,10.217 0.68402,10.412 0.8293,10.664 0.9828,10.93 1.0808,11.124 1.1227,11.243 1.1677,11.371 1.3786,12.213 1.4073,12.378 1.4322,12.523 1.4251,12.723 1.4251,12.723 1.4251,12.723 1.3915,12.84 1.3628,12.912 1.2832,13.109 1.2772,13.183 1.3317,13.339 1.4401,13.649 1.6307,13.86 1.9053,13.978 1.9747,14.008 1.9864,14.01 2.0031,13.969 2.0405,13.878 2.0888,13.679 2.1053,13.541 2.1324,13.316 2.1125,13.156 1.9986,12.636 1.9459,12.395 1.923,12.103 1.923,12.103 1.923,12.103 2.6007,12.642 2.9368,12.985 L 3.2346,13.275 C 3.392,13.419 3.4861,13.481 3.617,13.528 3.6876,13.553 3.7771,13.56 3.7771,13.56 3.9245,13.56 3.9916,13.496 3.9994,13.348 4.0049,13.244 3.9741,13.124 3.8927,12.953 3.8131,12.786 3.7493,12.699 3.6259,12.576 3.4823,12.434 3.349,12.333 2.919,12.047 2.5528,11.805 2.3896,11.68 2.2476,11.533 2.0604,11.338 1.9809,11.177 1.9719,10.967 1.9645,10.794 2.0061,10.684 2.1142,10.572 2.225,10.457 2.3473,10.393 2.7056,10.264 3.0841,10.128 3.2252,10.042 3.288,9.9099 3.3117,9.8214 3.3147,9.7263 3.2925,9.6433 3.21,9.4807 2.9618,9.3828 2.5588,9.3582 L 2.4566,9.3537 1.7674,10.052 2.1409,8.016 C 2.1409,8.016 2.1326,7.997 2.052,8.0022 Z"/>
 <path style="fill:#7767c0" d="M 12.082,1.0011 C 11.975,1.0093 11.881,1.065 11.797,1.1711 11.702,1.291 11.655,1.4529 11.669,1.5964 11.689,1.8084 11.749,1.9833 11.991,2.4914 12.125,2.7708 12.168,2.8826 12.214,3.1064 12.279,3.4225 12.305,3.6995 12.305,4.0666 12.304,4.4045 12.285,4.6506 12.234,4.9716 12.189,5.2534 12.096,5.5865 12.096,5.5865 12.096,5.5865 11.972,3.7995 11.935,3.6216 11.835,3.1481 11.613,2.9481 11.246,3.0066 L 10.961,3.0965 11.241,4.0016 11.17,4.0271 10.748,3.4168 C 10.501,3.1076 10.233,2.96 9.9554,2.977 L 9.6751,3.042 C 9.6751,3.042 9.3615,3.0858 9.7074,4.4117 L 10,6 V 8.0075 L 9.3803,8.0174 8.9867,8.0569 C 8.9867,8.0569 8.7121,8.1168 8.5599,8.1717 8.0847,8.3435 7.6684,8.5467 7.3209,8.9815 7.0006,9.3823 6.729,9.8927 6.4618,10.597 L 6.1678,11.452 C 6.0667,11.791 6.0106,12.152 6.0015,12.542 5.9934,12.889 6.0184,13.175 6.0868,13.467 6.1671,13.809 6.287,14.074 6.4525,14.297 L 6.5902,14.462 C 6.8032,14.687 7.0348,14.918 7.3303,14.982 7.5415,15.027 7.9215,15.033 7.9096,14.992 L 7.6249,14.007 7.6816,13.972 C 7.6816,13.972 7.7358,14.044 7.7907,14.132 8.0115,14.486 8.1818,14.688 8.3749,14.827 8.4896,14.91 8.6398,14.973 8.7593,14.992 8.8331,15.004 9.0093,15.003 9.082,14.987 9.1718,14.967 9.272,14.922 9.272,14.922 L 8.702,13.937 C 9.0757,14.243 9.5659,14.54 9.9124,14.642 10.346,14.77 10.756,14.708 11.066,14.462 11.164,14.384 11.261,14.262 11.261,14.262 L 9.6564,13.542 C 9.6564,13.542 11.284,13.687 11.55,13.687 11.833,13.686 11.957,13.675 12.172,13.627 12.507,13.553 12.865,13.375 13.159,13.142 13.278,13.047 13.33,12.977 13.33,12.977 L 10.553,12.972 10.662,12.657 10.738,12.687 C 11.37,13.083 12.731,12.981 13.719,12.462 14.002,12.313 14.189,12.173 14.374,11.977 14.595,11.743 14.726,11.487 14.744,11.242 L 14.73,11.167 C 14.73,11.167 13.937,11.408 13.79,11.457 12.833,11.776 12.435,11.862 11.915,11.872 11.618,11.878 11.36,11.832 11.36,11.832 11.36,11.832 11.774,11.655 12.048,11.582 12.283,11.519 12.95,11.377 12.95,11.377 13.755,11.206 14.047,11.126 14.403,10.977 15.153,10.662 15.829,10.316 15.963,9.5686 15.997,9.3742 15.996,9.0337 15.996,9.0337 15.996,9.0337 15.356,9.0955 14.887,9.3715 L 14.023,9.8669 13.961,9.7218 14.099,9.6418 C 14.459,9.4377 14.732,9.223 15.029,8.9114 15.584,8.329 15.908,7.6566 15.988,6.9365 16,6.6436 15.773,6.3511 15.636,5.9822 L 14.203,8.1815 15.072,6.5867 15.389,5.8864 C 15.593,5.328 15.522,5.154 15.38,4.7015 15.339,4.57 15.24,4.356 15.162,4.2315 15.085,4.1081 14.958,3.9565 14.958,3.9565 14.52,5.0606 12.609,8.7663 12.609,8.7663 12.609,8.7663 12.666,8.572 12.732,8.4014 12.968,7.7866 13.951,6.02 14.07,5.7716 14.441,4.9978 14.62,4.373 14.664,3.6912 14.673,3.5526 14.673,3.4867 14.664,3.3965 14.617,2.9257 14.459,2.7388 14.293,2.4108 14.196,2.2202 14.072,2.0683 13.961,2.0111 L 13.814,1.981 13.653,2.0157 C 13.498,2.0922 13.453,2.2124 13.453,2.521 13.453,2.521 13.465,2.8157 13.515,3.1859 L 13.544,3.7411 13.506,4.0016 C 13.443,4.6023 13.288,5.2929 13.059,6.0263 L 12.832,6.7114 13.045,5.6561 C 13.316,4.4875 13.38,4.0706 13.392,3.4812 13.399,3.0732 13.373,2.7916 13.301,2.4613 L 13.178,2.076 C 13,1.6968 12.69,1.2954 12.437,1.1212 12.307,1.0314 12.188,0.9929 12.082,1.0011 Z"/>
 <path style="fill:#d54c41" d="M 5.5912,5.5795 C 5.5912,5.5795 5.7964,5.4346 5.9818,5.4423 6.198,5.4512 6.3406,5.6442 6.3406,5.6442 5.8622,5.9429 5.5912,5.5795 5.5912,5.5795 Z M 5.3429,7.0037 C 4.9446,7.0503 4.5514,7.1395 4.1727,7.2648 3.7802,7.4002 3.3884,7.5788 3.0984,7.87 3.077,7.9043 2.9671,7.9813 3.0097,8 L 5.3764,7.3711 C 5.4154,7.3279 5.4227,6.9791 5.3429,7.0037 Z"/>
</svg>

<svg xmlns="http://www.w3.org/2000/svg" width="16" height="16"><path style="fill:#4f4f4f" d="M7.583 4c-.09.001-.185.01-.24.019-.346.06-.621.188-.765.364a.488.488 0 0 0-.088.476l.01.047-1.503.172.06.257c.066.233.08.78.069.78-.002 0-.037-.025-.074-.051-.153-.112-.293-.066-.442-.073a.46.46 0 0 0-.387.154l-.01.004a.505.505 0 0 0-.12.168c-.056.117-.084.122-.092.26-.009.161.026.365.083.5l.019.046h.078c.204 0 .365-.264.535-.345.119-.03.337-.03.484 0 .53.106.928-.029.908.335-.005.097-.04.161-.125.248a1.35 1.35 0 0 1-.322.224c-.056.03-.15.084-.208.117a3.235 3.235 0 0 0-.184.112c-.084.056-.189.15-.189.172 0 .02.052.019.276-.004.097-.01.176-.026.259-.038.402-.058.67-.137.88-.275.2-.132.35-.34.406-.56.009-.036.023-.06.023-.06s.042.018.078.041c.237.15.432.203.595.168.145-.031.286-.12.544-.345l.133-.112.12.261c.06.142.125.976.125.976.174.026.258-.006.479-.038.095-.635.035-1.485-.018-1.974-.088-.058-.826-.055-.826-.055-.191.154-.348.255-.456.181-.107-.073-.198-.182-.198-.182a1.02 1.02 0 0 1 .083-.033c.324-.114.546-.33.691-.676.06-.143.19-.687.19-.687l.128-.537-1.369.668.263-.243.295-.261.01-.023s.008-.033.008-.075c0-.078-.002-.083-.027-.093a.841.841 0 0 0-.19-.01zM2.052 8.002a.984.984 0 0 0-.329.083c-.246.12-.39.34-.458.685-.04.202-.047.313-.049.85l-.009.515-.404-.699a.994.994 0 0 0-.223-.239s-.079-.073-.204-.073c-.17 0-.32.16-.365.39-.043.221.041.405.218.474.06.035.29.028.29.028l.03.082c.04.119.135.314.28.566.154.266.252.46.294.579.045.128.256.97.284 1.135.025.145.018.345.018.345s-.034.117-.062.189c-.08.197-.086.271-.031.427.108.31.299.521.573.639.07.03.081.032.098-.009.038-.091.086-.29.102-.428.027-.225.007-.385-.106-.905-.053-.241-.076-.533-.076-.533s.678.539 1.014.882l.298.29c.157.144.251.206.382.253.07.025.16.032.16.032.147 0 .215-.064.222-.212.006-.104-.025-.224-.106-.395a1.174 1.174 0 0 0-.267-.377c-.144-.142-.277-.243-.707-.529-.366-.242-.53-.367-.671-.514-.188-.195-.267-.356-.276-.566a.478.478 0 0 1 .142-.395c.111-.115.233-.179.592-.308.378-.136.52-.222.582-.354a.526.526 0 0 0 .005-.267c-.083-.162-.331-.26-.734-.285l-.102-.004-.69.698.374-2.036s-.008-.019-.089-.014z"/><path style="fill:#7767c0" d="M12.082 1.001c-.107.008-.201.064-.285.17a.612.612 0 0 0-.128.425c.02.212.08.387.322.895.134.28.177.392.223.615.065.317.091.594.091.96a5.377 5.377 0 0 1-.209 1.52s-.124-1.787-.161-1.964c-.1-.474-.322-.674-.689-.615l-.285.09.28.905-.071.025-.422-.61c-.247-.31-.515-.457-.793-.44l-.28.065s-.314.044.032 1.37L10 6v2.008l-.62.01-.393.039s-.275.06-.427.115c-.475.171-.892.375-1.24.81-.32.4-.591.91-.858 1.615l-.294.855c-.101.339-.157.7-.167 1.09-.008.347.017.633.086.925.08.342.2.607.365.83l.138.165c.213.225.445.456.74.52.212.045.591.051.58.01l-.285-.985.057-.035s.054.072.109.16c.22.354.39.556.584.695a.971.971 0 0 0 .384.165c.074.012.25.011.323-.005.09-.02.19-.065.19-.065l-.57-.985c.374.306.864.603 1.21.705.434.128.844.066 1.154-.18.098-.078.195-.2.195-.2l-1.605-.72s1.628.145 1.894.145c.283-.001.407-.012.622-.06.335-.074.693-.252.987-.485.119-.095.171-.165.171-.165l-2.777-.005.109-.315.076.03c.632.396 1.993.294 2.981-.225.283-.149.47-.289.655-.485.221-.234.352-.49.37-.735l-.014-.075s-.793.241-.94.29c-.957.319-1.355.405-1.875.415-.297.006-.555-.04-.555-.04s.414-.177.688-.25c.235-.063.902-.205.902-.205.805-.171 1.097-.251 1.453-.4.75-.315 1.426-.661 1.56-1.408.034-.195.033-.535.033-.535s-.64.061-1.109.337l-.864.496-.062-.145.138-.08c.36-.204.633-.419.93-.73.555-.583.879-1.255.959-1.976.012-.292-.215-.585-.352-.954l-1.433 2.2.869-1.595.317-.7c.204-.559.133-.733-.009-1.185a2.457 2.457 0 0 0-.218-.47c-.077-.124-.204-.276-.204-.276-.438 1.105-2.349 4.81-2.349 4.81s.057-.194.123-.365c.236-.614 1.219-2.381 1.338-2.63.371-.773.55-1.398.594-2.08a1.587 1.587 0 0 0 0-.294c-.047-.471-.205-.658-.371-.986-.097-.19-.221-.343-.332-.4l-.147-.03-.161.035c-.155.076-.2.196-.2.505 0 0 .012.295.062.665l.029.555-.038.26c-.063.601-.218 1.292-.447 2.025l-.227.685.213-1.055c.271-1.168.335-1.585.347-2.175a4.088 4.088 0 0 0-.091-1.02l-.123-.385c-.178-.38-.488-.78-.741-.955-.13-.09-.249-.128-.355-.12z"/><path style="fill:#d54c41" d="M5.591 5.58s.205-.145.39-.138c.217.01.36.202.36.202-.479.299-.75-.064-.75-.064zm-.248 1.424a5.925 5.925 0 0 0-1.17.26c-.393.136-.785.315-1.075.606-.021.034-.13.111-.088.13l2.366-.629c.04-.043.047-.392-.033-.367z"/></svg>
